assets/img/icon-play-pause.svg

<svg xmlns="http://www.w3.org/2000/svg" viewBox="0 0 50 50"><defs><path fill="#fff" data-state="playing" id="pause-icon" d="M0 0h20v50H0zm30 0h20v50H30z"/><path fill="#fff" data-state="paused" id="play-icon" d="M0 0l25 12.5v25L0 50zm25 12.5L50 25 25 37.5z"/></defs></svg>

<svg id='playpausedefs' version="1.1" xmlns="http://www.w3.org/2000/svg" xmlns:xlink="http://www.w3.org/1999/xlink" viewBox="0 0 50 50">
	<defs>
		<path fill='white' data-state="playing"	 id='pause-icon'	d='M0,0 L20,0 L20,50 L0,50z 		M30,0 L50,0 L50,50 L30,50z'/>
		<path fill='white' data-state="paused"	 id='play-icon'		d='M0,0 L25,12.5 L25,37.5 L0,50z 	M25,12.5 L50,25 L50,25 L25,37.5z'/>
	</defs>
</svg>
